packages/match-icons/product/svg/twilio-api-for-whatsapp.svg

<svg fill="none" height="32" viewBox="0 0 32 32" width="32" xmlns="http://www.w3.org/2000/svg" xmlns:xlink="http://www.w3.org/1999/xlink"><clipPath id="a"><path d="m0 0h32v32h-32z"/></clipPath><g clip-path="url(#a)" fill="#394762"><path d="m16 26.64c-.596-.0019-1.191-.0487-1.78-.14-2.1733-.3737-4.1779-1.4103-5.73903-2.9678-1.56111-1.5575-2.60233-3.5598-2.98096-5.7322-.34213-2.0259-.0993-4.1073.7-6 .23729-.5327.60077-.9996 1.05901-1.3603.45825-.3606.99745-.60424 1.57099-.70972.59453-.11626 1.20849-.08597 1.78869.08827.5802.17423 1.1092.48715 1.5413.91175.5198.5091.8756 1.1619 1.0217 1.8746s.0758 1.4528-.2017 2.1254c-.242.5741-.3215 1.2037-.23 1.82.1177.6784.4422 1.304.9291 1.7909s1.1124.8114 1.7909.9291c.62.079 1.2497-.0145 1.82-.27.6716-.2831 1.4131-.3562 2.1271-.2099.7139.1464 1.3669.5054 1.8729 1.0299.4252.4296.7387.9568.913 1.5356s.2042 1.1914.087 1.7844c-.1077.5702-.3523 1.1057-.7129 1.5604s-.8264.8149-1.3571 1.0496c-1.3314.5808-2.7674.8837-4.22.89zm-6.44999-15c-.10951-.0147-.22049-.0147-.33 0-.27165.0414-.52754.1539-.74177.3259-.21423.1721-.37921.3978-.47823.6541-.64037 1.5315-.83451 3.2129-.56 4.85.29823 1.7531 1.13078 3.3714 2.38377 4.6333 1.25302 1.2619 2.86522 2.106 4.61622 2.4167 1.6593.2801 3.3643.0752 4.91-.59.2348-.0975.4408-.2534.5983-.4529.1576-.1996.2614-.4361.3017-.6871.0544-.2647.0417-.5387-.0369-.7972s-.2206-.4932-.4131-.6828c-.2219-.2509-.5148-.4282-.8399-.5086s-.6669-.06-.9801.0586c-.914.3888-1.9187.5136-2.9.36-.7907-.1295-1.5416-.4373-2.1958-.9-.6541-.4627-1.1944-1.0682-1.5799-1.7707-.3854-.7025-.6059-1.4835-.6448-2.2838-.0388-.8003.1049-1.599.4205-2.3355.1148-.3009.1391-.6288.0698-.9434-.0693-.3145-.2291-.6018-.4598-.8266-.3067-.3055-.7174-.484-1.14999-.5z"/><path d="m16 32c-3.0521-.0005-6.04127-.8674-8.62-2.5l-3.33 1.19c-.36365.1304-.75653.1564-1.1342.0751-.37767-.0812-.72506-.2666-1.00287-.535-.27782-.2685-.47496-.6093-.56914-.984-.09418-.3746-.08164-.7682.03621-1.1361l1.13-3.51c-1.50368-2.3474-2.367934-5.047-2.5071295-7.8313s.4514965-5.5566 1.7135495-8.04235c1.26206-2.48572 3.15168-4.59855 5.48166-6.12917 2.32997-1.53063 5.01942-2.425918 7.80192-2.59717499 4.1849-.28115701 8.3129 1.09225499 11.4953 3.82454499 3.1823 2.7323 5.1645 6.60495 5.5197 10.78425.3553 4.1793-.9448 8.331-3.6202 11.5612-2.6755 3.2303-6.5125 5.2807-10.6848 5.71-.5673.0721-1.1382.1122-1.71.12zm-8.45-4.61c.19945-.0004.39447.0588.56.17 2.7391 1.8852 6.0647 2.7228 9.37 2.36 3.7024-.3156 7.1278-2.0891 9.5227-4.9302 2.3948-2.8412 3.5629-6.5174 3.2473-10.2198s-2.0891-7.12782-4.9302-9.52266c-2.8412-2.39484-6.5174-3.56294-10.2198-3.24733-3.2863.23059-6.3875 1.60705-8.76312 3.88946-2.37562 2.28242-3.87501 5.32613-4.23688 8.60053-.36459 3.3054.47317 6.6316 2.36 9.37.08489.1263.13983.2704.16062.4211.0208.1508.0069.3043-.04062.4489l-1.27 4 .09.09 3.83-1.36c.1021-.0408.21021-.0644.32-.07z"/></g></svg>

<svg width="32" height="32" viewBox="0 0 32 32" fill="none" xmlns="http://www.w3.org/2000/svg">
<g clip-path="url(#clip0)">
<path d="M16 26.64C15.404 26.6381 14.809 26.5913 14.22 26.5C12.0467 26.1263 10.0421 25.0897 8.48097 23.5322C6.91986 21.9747 5.87864 19.9724 5.50001 17.8C5.15788 15.7741 5.40071 13.6927 6.20001 11.8C6.4373 11.2673 6.80078 10.8004 7.25902 10.4397C7.71727 10.0791 8.25647 9.83546 8.83001 9.72998C9.42454 9.61372 10.0385 9.64401 10.6187 9.81825C11.1989 9.99248 11.7279 10.3054 12.16 10.73C12.6798 11.2391 13.0356 11.8919 13.1817 12.6046C13.3278 13.3173 13.2575 14.0574 12.98 14.73C12.738 15.3041 12.6585 15.9337 12.75 16.55C12.8677 17.2284 13.1922 17.854 13.6791 18.3409C14.166 18.8278 14.7915 19.1523 15.47 19.27C16.09 19.349 16.7197 19.2555 17.29 19C17.9616 18.7169 18.7031 18.6438 19.4171 18.7901C20.131 18.9365 20.784 19.2955 21.29 19.82C21.7152 20.2496 22.0287 20.7768 22.203 21.3556C22.3773 21.9344 22.4072 22.547 22.29 23.14C22.1823 23.7102 21.9377 24.2457 21.5771 24.7004C21.2165 25.1551 20.7507 25.5153 20.22 25.75C18.8886 26.3308 17.4526 26.6337 16 26.64ZM9.55001 11.64C9.4405 11.6253 9.32952 11.6253 9.22001 11.64C8.94836 11.6814 8.69247 11.7939 8.47824 11.9659C8.26401 12.138 8.09903 12.3637 8.00001 12.62C7.35964 14.1515 7.1655 15.8329 7.44001 17.47C7.73824 19.2231 8.57079 20.8414 9.82378 22.1033C11.0768 23.3652 12.689 24.2093 14.44 24.52C16.0993 24.8001 17.8043 24.5952 19.35 23.93C19.5848 23.8325 19.7908 23.6766 19.9483 23.4771C20.1059 23.2775 20.2097 23.041 20.25 22.79C20.3044 22.5253 20.2917 22.2513 20.2131 21.9928C20.1345 21.7343 19.9925 21.4996 19.8 21.31C19.5781 21.0591 19.2852 20.8818 18.9601 20.8014C18.635 20.721 18.2932 20.7414 17.98 20.86C17.066 21.2488 16.0613 21.3736 15.08 21.22V21.22C14.2893 21.0905 13.5384 20.7827 12.8842 20.32C12.2301 19.8573 11.6898 19.2518 11.3043 18.5493C10.9189 17.8468 10.6984 17.0658 10.6595 16.2655C10.6207 15.4652 10.7644 14.6665 11.08 13.93C11.1948 13.6291 11.2191 13.3012 11.1498 12.9866C11.0805 12.6721 10.9207 12.3848 10.69 12.16C10.3833 11.8545 9.9726 11.676 9.54001 11.66L9.55001 11.64Z" fill="#394762"/>
<path d="M16 32C12.9479 31.9995 9.95873 31.1326 7.38 29.5L4.05 30.69C3.68635 30.8204 3.29347 30.8464 2.9158 30.7651C2.53813 30.6839 2.19074 30.4985 1.91293 30.2301C1.63511 29.9616 1.43797 29.6208 1.34379 29.2461C1.24961 28.8715 1.26215 28.4779 1.38 28.11L2.51 24.6C1.00632 22.2526 0.142066 19.553 0.0028705 16.7687C-0.136325 13.9844 0.454367 11.2121 1.71642 8.72635C2.97848 6.24063 4.8681 4.1278 7.19808 2.59718C9.52805 1.06655 12.2175 0.171262 15 5.01052e-06V5.01052e-06C19.1849 -0.281152 23.3129 1.09226 26.4953 3.82455C29.6776 6.55685 31.6598 10.4295 32.015 14.6088C32.3703 18.7881 31.0702 22.9398 28.3948 26.17C25.7193 29.4003 21.8823 31.4507 17.71 31.88C17.1427 31.9521 16.5718 31.9922 16 32V32ZM7.55 27.39C7.74945 27.3896 7.94447 27.4488 8.11 27.56C10.8491 29.4452 14.1747 30.2828 17.48 29.92C21.1824 29.6044 24.6078 27.8309 27.0027 24.9898C29.3975 22.1486 30.5656 18.4724 30.25 14.77C29.9344 11.0676 28.1609 7.64218 25.3198 5.24734C22.4786 2.8525 18.8024 1.6844 15.1 2.00001V2.00001C11.8137 2.2306 8.7125 3.60706 6.33688 5.88947C3.96126 8.17189 2.46187 11.2156 2.1 14.49C1.73541 17.7954 2.57317 21.1216 4.46 23.86C4.54489 23.9863 4.59983 24.1304 4.62062 24.2811C4.64142 24.4319 4.62752 24.5854 4.58 24.73L3.31 28.73L3.4 28.82L7.23 27.46C7.3321 27.4192 7.44021 27.3956 7.55 27.39Z" fill="#394762"/>
</g>
<defs>
<clipPath id="clip0">
<rect width="32" height="32" fill="white"/>
</clipPath>
</defs>
</svg>
